assets/images/bluesky.svg

<svg height="16" viewBox="0 0 16 16" width="16" xmlns="http://www.w3.org/2000/svg"><path d="m3.492188 1.945312c1.828124 1.363282 3.789062 4.140626 4.507812 5.628907.71875-1.488281 2.679688-4.261719 4.507812-5.628907 1.3125-.988281 3.445313-1.75 3.445313.679688 0 .484375-.277344 4.078125-.441406 4.664062-.566407 2.023438-2.636719 2.542969-4.476563 2.226563 3.214844.546875 4.035156 2.359375 2.265625 4.171875-3.355469 3.445312-4.824219-.863281-5.199219-1.964844-.050781-.152344-.078124-.246094-.101562-.246094s-.050781.09375-.101562.246094c-.375 1.101563-1.84375 5.410156-5.199219 1.964844-1.765625-1.8125-.949219-3.625 2.265625-4.171875-1.839844.316406-3.910156-.203125-4.472656-2.230469-.167969-.585937-.445313-4.179687-.445313-4.664062 0-2.429688 2.132813-1.667969 3.445313-.679688zm0 0"/></svg>

<svg xmlns="http://www.w3.org/2000/svg" xmlns:xlink="http://www.w3.org/1999/xlink" width="16" height="16" version="1.1" viewBox="0 0 16 16"><g id="surface1"><path style="stroke:none;fill-rule:nonzero;fill:#000;fill-opacity:1" d="M 3.492188 1.945312 C 5.320312 3.308594 7.28125 6.085938 8 7.574219 C 8.71875 6.085938 10.679688 3.3125 12.507812 1.945312 C 13.820312 0.957031 15.953125 0.195312 15.953125 2.625 C 15.953125 3.109375 15.675781 6.703125 15.511719 7.289062 C 14.945312 9.3125 12.875 9.832031 11.035156 9.515625 C 14.25 10.0625 15.070312 11.875 13.300781 13.6875 C 9.945312 17.132812 8.476562 12.824219 8.101562 11.722656 C 8.050781 11.570312 8.023438 11.476562 8 11.476562 C 7.976562 11.476562 7.949219 11.570312 7.898438 11.722656 C 7.523438 12.824219 6.054688 17.132812 2.699219 13.6875 C 0.933594 11.875 1.75 10.0625 4.964844 9.515625 C 3.125 9.832031 1.054688 9.3125 0.492188 7.285156 C 0.324219 6.699219 0.046875 3.105469 0.046875 2.621094 C 0.046875 0.191406 2.179688 0.953125 3.492188 1.941406 Z M 3.492188 1.945312"/></g></svg>
